svg/star.svg

<svg xmlns="http://www.w3.org/2000/svg" viewBox="0 0 64 61" enable-background="new 0 0 64 61"><style type="text/css">.st0{fill:#343434;}</style><title>star</title><desc>Created with Sketch.</desc><path class="st0" d="M64.1 23l-21.9-3.2-9.8-19.8-9.8 19.8-21.9 3.2 15.8 15.4-3.7 21.8 19.6-10.3 19.6 10.3-3.7-21.8 15.8-15.4zm-31.7 22.4l-14.3 7.5 2.8-15.9-11.6-11.2 15.9-2.3 7.2-14.5 7.1 14.4 15.9 2.3-11.5 11.3 2.7 15.9-14.2-7.5z"/></svg>

<svg xmlns="http://www.w3.org/2000/svg" viewBox="0 0 64 61"><path d="M64.1 23l-21.9-3.2L32.4 0l-9.8 19.8L.7 23l15.8 15.4-3.7 21.8 19.6-10.3L52 60.2l-3.7-21.8L64.1 23zM32.4 45.4l-14.3 7.5L20.9 37 9.3 25.8l15.9-2.3L32.4 9l7.1 14.4 15.9 2.3L43.9 37l2.7 15.9-14.2-7.5z" fill="#343434"/></svg>
